assets/1. Faces/Shushing face/Color/shushing_face_color.svg

<svg width="100%" height="100%" viewBox="0 0 32 32" fill="none" xmlns="http://www.w3.org/2000/svg">
<g clip-path="url(#clip0_31_57)">
<path d="M15.9989 29.9978C25.3333 29.9978 29.9978 23.7303 29.9978 15.9989C29.9978 8.26751 25.3333 2 15.9989 2C6.66443 2 2 8.26751 2 15.9989C2 23.7303 6.66443 29.9978 15.9989 29.9978Z" fill="url(#paint0_radial_31_57)"/>
<path d="M15.9989 29.9978C25.3333 29.9978 29.9978 23.7303 29.9978 15.9989C29.9978 8.26751 25.3333 2 15.9989 2C6.66443 2 2 8.26751 2 15.9989C2 23.7303 6.66443 29.9978 15.9989 29.9978Z" fill="url(#paint1_radial_31_57)"/>
<path d="M15.9989 29.9978C25.3333 29.9978 29.9978 23.7303 29.9978 15.9989C29.9978 8.26751 25.3333 2 15.9989 2C6.66443 2 2 8.26751 2 15.9989C2 23.7303 6.66443 29.9978 15.9989 29.9978Z" fill="url(#paint2_radial_31_57)"/>
<path d="M15.9989 29.9978C25.3333 29.9978 29.9978 23.7303 29.9978 15.9989C29.9978 8.26751 25.3333 2 15.9989 2C6.66443 2 2 8.26751 2 15.9989C2 23.7303 6.66443 29.9978 15.9989 29.9978Z" fill="url(#paint3_radial_31_57)" fill-opacity="0.6"/>
<path d="M15.9989 29.9978C25.3333 29.9978 29.9978 23.7303 29.9978 15.9989C29.9978 8.26751 25.3333 2 15.9989 2C6.66443 2 2 8.26751 2 15.9989C2 23.7303 6.66443 29.9978 15.9989 29.9978Z" fill="url(#paint4_radial_31_57)"/>
<path d="M15.9989 29.9978C25.3333 29.9978 29.9978 23.7303 29.9978 15.9989C29.9978 8.26751 25.3333 2 15.9989 2C6.66443 2 2 8.26751 2 15.9989C2 23.7303 6.66443 29.9978 15.9989 29.9978Z" fill="url(#paint5_radial_31_57)"/>
<path d="M15.9989 29.9978C25.3333 29.9978 29.9978 23.7303 29.9978 15.9989C29.9978 8.26751 25.3333 2 15.9989 2C6.66443 2 2 8.26751 2 15.9989C2 23.7303 6.66443 29.9978 15.9989 29.9978Z" fill="url(#paint6_radial_31_57)"/>
<path d="M15.9989 29.9978C25.3333 29.9978 29.9978 23.7303 29.9978 15.9989C29.9978 8.26751 25.3333 2 15.9989 2C6.66443 2 2 8.26751 2 15.9989C2 23.7303 6.66443 29.9978 15.9989 29.9978Z" fill="url(#paint7_radial_31_57)"/>
<circle cx="9.01705" cy="13.4205" r="4.6733" fill="url(#paint8_radial_31_57)"/>
<circle cx="19.2443" cy="13.9432" r="4.24431" fill="url(#paint9_radial_31_57)"/>
<path d="M10.4191 16.2244C12.742 16.2244 14.6251 14.3414 14.6251 12.0185C14.6251 9.69557 12.742 7.8125 10.4191 7.8125C8.09621 7.8125 6.21313 9.69557 6.21313 12.0185C6.21313 14.3414 8.09621 16.2244 10.4191 16.2244Z" fill="white"/>
<path d="M21.5683 16.3011C23.9123 16.3011 25.8126 14.4009 25.8126 12.0568C25.8126 9.71274 23.9123 7.8125 21.5683 7.8125C19.2242 7.8125 17.324 9.71274 17.324 12.0568C17.324 14.4009 19.2242 16.3011 21.5683 16.3011Z" fill="white"/>
<path d="M11 15C12.6569 15 14 13.6569 14 12C14 10.3431 12.6569 9 11 9C9.34315 9 8 10.3431 8 12C8 13.6569 9.34315 15 11 15Z" fill="url(#paint10_linear_31_57)"/>
<path d="M21 15C22.6569 15 24 13.6569 24 12C24 10.3431 22.6569 9 21 9C19.3431 9 18 10.3431 18 12C18 13.6569 19.3431 15 21 15Z" fill="url(#paint11_linear_31_57)"/>
<path d="M13 19H19" stroke="url(#paint12_linear_31_57)" stroke-width="2" stroke-linecap="round"/>
<path d="M18.79 22.02C18.02 22.02 18.02 21.25 18.02 21.25V18.02C18.02 16.92 17.12 16.02 16.02 16.02C14.92 16.02 14.02 16.92 14.02 18.02V26.25V27.72C14.02 30.06 15.92 31.95 18.25 31.95H18.78C21.12 31.95 23.01 30.05 23.01 27.72V26.25C23.02 23.92 21.3 22.02 18.79 22.02Z" fill="url(#paint13_radial_31_57)"/>
<path d="M18.2449 21.8171C18.02 21.5889 18.02 21.25 18.02 21.25V18.02C18.02 16.92 17.12 16.02 16.02 16.02C14.92 16.02 14.02 16.92 14.02 18.02V26.25C16.5 24 17 23.5 18.2449 21.8171Z" fill="url(#paint14_linear_31_57)"/>
<path d="M18.79 22.02C18.02 22.02 18.02 21.25 18.02 21.25V18.02C18.02 16.92 17.12 16.02 16.02 16.02C14.92 16.02 14.02 16.92 14.02 18.02V26.25V27.72C14.02 30.06 15.92 31.95 18.25 31.95H18.78C21.12 31.95 23.01 30.05 23.01 27.72V26.25C23.02 23.92 21.3 22.02 18.79 22.02Z" fill="url(#paint15_radial_31_57)"/>
</g>
<defs>
<radialGradient id="paint0_radial_31_57" cx="0" cy="0" r="1" gradientUnits="userSpaceOnUse" gradientTransform="translate(25.5 9) rotate(132.839) scale(37.5033)">
<stop stop-color="#FFF478"/>
<stop offset="0.474827" stop-color="#FFB02E"/>
<stop offset="1" stop-color="#F70A8D"/>
</radialGradient>
<radialGradient id="paint1_radial_31_57" cx="0" cy="0" r="1" gradientUnits="userSpaceOnUse" gradientTransform="translate(25.5 9) rotate(131.878) scale(38.9487)">
<stop stop-color="#FFF478"/>
<stop offset="0.474827" stop-color="#FFB02E"/>
<stop offset="1" stop-color="#F70A8D"/>
</radialGradient>
<radialGradient id="paint2_radial_31_57" cx="0" cy="0" r="1" gradientUnits="userSpaceOnUse" gradientTransform="translate(16 12.5) rotate(101.31) scale(17.8466 22.8581)">
<stop offset="0.787821" stop-color="#F59639" stop-opacity="0"/>
<stop offset="0.972509" stop-color="#FF7DCE"/>
</radialGradient>
<radialGradient id="paint3_radial_31_57" cx="0" cy="0" r="1" gradientUnits="userSpaceOnUse" gradientTransform="translate(18 14) rotate(135) scale(41.0122)">
<stop offset="0.314853" stop-opacity="0"/>
<stop offset="1"/>
</radialGradient>
<radialGradient id="paint4_radial_31_57" cx="0" cy="0" r="1" gradientUnits="userSpaceOnUse" gradientTransform="translate(16 17) rotate(77.692) scale(28.1469)">
<stop offset="0.507903" stop-color="#7D6133" stop-opacity="0"/>
<stop offset="1" stop-color="#715B32"/>
</radialGradient>
<radialGradient id="paint5_radial_31_57" cx="0" cy="0" r="1" gradientUnits="userSpaceOnUse" gradientTransform="translate(16.5 16.5) rotate(55.7131) scale(13.3135 9.65032)">
<stop stop-color="#FFB849"/>
<stop offset="1" stop-color="#FFB847" stop-opacity="0"/>
</radialGradient>
<radialGradient id="paint6_radial_31_57" cx="0" cy="0" r="1" gradientUnits="userSpaceOnUse" gradientTransform="translate(20.5 18) rotate(9.86581) scale(11.6726)">
<stop stop-color="#FFA64B"/>
<stop offset="0.900412" stop-color="#FFAE46" stop-opacity="0"/>
</radialGradient>
<radialGradient id="paint7_radial_31_57" cx="0" cy="0" r="1" gradientUnits="userSpaceOnUse" gradientTransform="translate(17.5 15) rotate(43.9708) scale(59.0529)">
<stop offset="0.185425" stop-opacity="0"/>
<stop offset="1" stop-opacity="0.4"/>
</radialGradient>
<radialGradient id="paint8_radial_31_57" cx="0" cy="0" r="1" gradientUnits="userSpaceOnUse" gradientTransform="translate(12.6518 9.7857) rotate(135) scale(9.10579 4.71285)">
<stop stop-color="#392108"/>
<stop offset="1" stop-color="#C87928" stop-opacity="0"/>
</radialGradient>
<radialGradient id="paint9_radial_31_57" cx="0" cy="0" r="1" gradientUnits="userSpaceOnUse" gradientTransform="translate(22.5454 10.642) rotate(135) scale(7.66968 4.32966)">
<stop stop-color="#392108"/>
<stop offset="1" stop-color="#C87928" stop-opacity="0"/>
</radialGradient>
<linearGradient id="paint10_linear_31_57" x1="16.5" y1="8" x2="15.5" y2="15" gradientUnits="userSpaceOnUse">
<stop stop-color="#553B3E"/>
<stop offset="1" stop-color="#3D2432"/>
</linearGradient>
<linearGradient id="paint11_linear_31_57" x1="16.5" y1="8" x2="15.5" y2="15" gradientUnits="userSpaceOnUse">
<stop stop-color="#553B3E"/>
<stop offset="1" stop-color="#3D2432"/>
</linearGradient>
<linearGradient id="paint12_linear_31_57" x1="16" y1="18.5" x2="16" y2="19.5" gradientUnits="userSpaceOnUse">
<stop stop-color="#4F3C43"/>
<stop offset="1" stop-color="#512756"/>
</linearGradient>
<radialGradient id="paint13_radial_31_57" cx="0" cy="0" r="1" gradientUnits="userSpaceOnUse" gradientTransform="translate(22 23) rotate(-180) scale(9 18.5521)">
<stop offset="0.143441" stop-color="#FFEA67"/>
<stop offset="0.574707" stop-color="#FFC13F"/>
<stop offset="0.904482" stop-color="#DF9030"/>
</radialGradient>
<linearGradient id="paint14_linear_31_57" x1="18.5" y1="20.5" x2="13.5" y2="21" gradientUnits="userSpaceOnUse">
<stop offset="0.143441" stop-color="#FFEA67"/>
<stop offset="1" stop-color="#E09332" stop-opacity="0"/>
</linearGradient>
<radialGradient id="paint15_radial_31_57" cx="0" cy="0" r="1" gradientUnits="userSpaceOnUse" gradientTransform="translate(16 20) rotate(105.422) scale(15.0416 21.0707)">
<stop offset="0.555608" stop-color="#FFEA67" stop-opacity="0"/>
<stop offset="0.793942" stop-color="#F9708E"/>
</radialGradient>
<clipPath id="clip0_31_57">
<rect width="32" height="32" fill="white"/>
</clipPath>
</defs>
</svg>

<svg width="100%" height="100%" viewBox="0 0 32 32" xmlns="http://www.w3.org/2000/svg"><g clip-path="url(#a)"><path fill="url(#b)" d="M15.999 29.998c9.334 0 13.999-6.268 13.999-14 0-7.73-4.665-13.998-14-13.998C6.665 2 2 8.268 2 15.999s4.664 13.999 13.999 13.999"/><path fill="url(#c)" d="M15.999 29.998c9.334 0 13.999-6.268 13.999-14 0-7.73-4.665-13.998-14-13.998C6.665 2 2 8.268 2 15.999s4.664 13.999 13.999 13.999"/><path fill="url(#d)" d="M15.999 29.998c9.334 0 13.999-6.268 13.999-14 0-7.73-4.665-13.998-14-13.998C6.665 2 2 8.268 2 15.999s4.664 13.999 13.999 13.999"/><path fill="url(#e)" fill-opacity=".6" d="M15.999 29.998c9.334 0 13.999-6.268 13.999-14 0-7.73-4.665-13.998-14-13.998C6.665 2 2 8.268 2 15.999s4.664 13.999 13.999 13.999"/><path fill="url(#f)" d="M15.999 29.998c9.334 0 13.999-6.268 13.999-14 0-7.73-4.665-13.998-14-13.998C6.665 2 2 8.268 2 15.999s4.664 13.999 13.999 13.999"/><path fill="url(#g)" d="M15.999 29.998c9.334 0 13.999-6.268 13.999-14 0-7.73-4.665-13.998-14-13.998C6.665 2 2 8.268 2 15.999s4.664 13.999 13.999 13.999"/><path fill="url(#h)" d="M15.999 29.998c9.334 0 13.999-6.268 13.999-14 0-7.73-4.665-13.998-14-13.998C6.665 2 2 8.268 2 15.999s4.664 13.999 13.999 13.999"/><path fill="url(#i)" d="M15.999 29.998c9.334 0 13.999-6.268 13.999-14 0-7.73-4.665-13.998-14-13.998C6.665 2 2 8.268 2 15.999s4.664 13.999 13.999 13.999"/><circle cx="9.017" cy="13.421" r="4.673" fill="url(#j)"/><circle cx="19.244" cy="13.943" r="4.244" fill="url(#k)"/><path fill="#fff" d="M10.42 16.224a4.206 4.206 0 1 0 0-8.411 4.206 4.206 0 0 0 0 8.411M21.568 16.301a4.244 4.244 0 1 0 0-8.489 4.244 4.244 0 0 0 0 8.49"/><path fill="url(#l)" d="M11 15a3 3 0 1 0 0-6 3 3 0 0 0 0 6"/><path fill="url(#m)" d="M21 15a3 3 0 1 0 0-6 3 3 0 0 0 0 6"/><path stroke="url(#n)" stroke-linecap="round" stroke-width="2" d="M13 19h6"/><path fill="url(#o)" d="M18.79 22.02c-.77 0-.77-.77-.77-.77v-3.23c0-1.1-.9-2-2-2s-2 .9-2 2v9.7c0 2.34 1.9 4.23 4.23 4.23h.53c2.34 0 4.23-1.9 4.23-4.23v-1.47c.01-2.33-1.71-4.23-4.22-4.23"/><path fill="url(#p)" d="M18.245 21.817c-.225-.228-.225-.567-.225-.567v-3.23c0-1.1-.9-2-2-2s-2 .9-2 2v8.23C16.5 24 17 23.5 18.245 21.817"/><path fill="url(#q)" d="M18.79 22.02c-.77 0-.77-.77-.77-.77v-3.23c0-1.1-.9-2-2-2s-2 .9-2 2v9.7c0 2.34 1.9 4.23 4.23 4.23h.53c2.34 0 4.23-1.9 4.23-4.23v-1.47c.01-2.33-1.71-4.23-4.22-4.23"/></g><defs><radialGradient id="b" cx="0" cy="0" r="1" gradientTransform="rotate(132.839 10.786 10.065)scale(37.5033)" gradientUnits="userSpaceOnUse"><stop stop-color="#FFF478"/><stop offset=".475" stop-color="#FFB02E"/><stop offset="1" stop-color="#F70A8D"/></radialGradient><radialGradient id="c" cx="0" cy="0" r="1" gradientTransform="rotate(131.878 10.74 10.193)scale(38.9487)" gradientUnits="userSpaceOnUse"><stop stop-color="#FFF478"/><stop offset=".475" stop-color="#FFB02E"/><stop offset="1" stop-color="#F70A8D"/></radialGradient><radialGradient id="d" cx="0" cy="0" r="1" gradientTransform="rotate(101.31 2.876 12.808)scale(17.8466 22.8581)" gradientUnits="userSpaceOnUse"><stop offset=".788" stop-color="#F59639" stop-opacity="0"/><stop offset=".973" stop-color="#FF7DCE"/></radialGradient><radialGradient id="e" cx="0" cy="0" r="1" gradientTransform="matrix(-29 29 -29 -29 18 14)" gradientUnits="userSpaceOnUse"><stop offset=".315" stop-opacity="0"/><stop offset="1"/></radialGradient><radialGradient id="f" cx="0" cy="0" r="1" gradientTransform="rotate(77.692 -2.555 18.434)scale(28.1469)" gradientUnits="userSpaceOnUse"><stop offset=".508" stop-color="#7D6133" stop-opacity="0"/><stop offset="1" stop-color="#715B32"/></radialGradient><radialGradient id="g" cx="0" cy="0" r="1" gradientTransform="rotate(55.713 -7.36 23.86)scale(13.3135 9.65032)" gradientUnits="userSpaceOnUse"><stop stop-color="#FFB849"/><stop offset="1" stop-color="#FFB847" stop-opacity="0"/></radialGradient><radialGradient id="h" cx="0" cy="0" r="1" gradientTransform="matrix(11.49998 2 -2 11.49998 20.5 18)" gradientUnits="userSpaceOnUse"><stop stop-color="#FFA64B"/><stop offset=".9" stop-color="#FFAE46" stop-opacity="0"/></radialGradient><radialGradient id="i" cx="0" cy="0" r="1" gradientTransform="rotate(43.971 -9.827 29.173)scale(59.0529)" gradientUnits="userSpaceOnUse"><stop offset=".185" stop-opacity="0"/><stop offset="1" stop-opacity=".4"/></radialGradient><radialGradient id="j" cx="0" cy="0" r="1" gradientTransform="rotate(135 4.3 7.513)scale(9.10579 4.71285)" gradientUnits="userSpaceOnUse"><stop stop-color="#392108"/><stop offset="1" stop-color="#C87928" stop-opacity="0"/></radialGradient><radialGradient id="k" cx="0" cy="0" r="1" gradientTransform="rotate(135 9.069 9.99)scale(7.66968 4.32966)" gradientUnits="userSpaceOnUse"><stop stop-color="#392108"/><stop offset="1" stop-color="#C87928" stop-opacity="0"/></radialGradient><radialGradient id="o" cx="0" cy="0" r="1" gradientTransform="matrix(-9 0 0 -18.5521 22 23)" gradientUnits="userSpaceOnUse"><stop offset=".143" stop-color="#FFEA67"/><stop offset=".575" stop-color="#FFC13F"/><stop offset=".904" stop-color="#DF9030"/></radialGradient><radialGradient id="q" cx="0" cy="0" r="1" gradientTransform="matrix(-3.99996 14.5 -20.31202 -5.60325 16 20)" gradientUnits="userSpaceOnUse"><stop offset=".556" stop-color="#FFEA67" stop-opacity="0"/><stop offset=".794" stop-color="#F9708E"/></radialGradient><linearGradient id="l" x1="16.5" x2="15.5" y1="8" y2="15" gradientUnits="userSpaceOnUse"><stop stop-color="#553B3E"/><stop offset="1" stop-color="#3D2432"/></linearGradient><linearGradient id="m" x1="16.5" x2="15.5" y1="8" y2="15" gradientUnits="userSpaceOnUse"><stop stop-color="#553B3E"/><stop offset="1" stop-color="#3D2432"/></linearGradient><linearGradient id="n" x1="16" x2="16" y1="18.5" y2="19.5" gradientUnits="userSpaceOnUse"><stop stop-color="#4F3C43"/><stop offset="1" stop-color="#512756"/></linearGradient><linearGradient id="p" x1="18.5" x2="13.5" y1="20.5" y2="21" gradientUnits="userSpaceOnUse"><stop offset=".143" stop-color="#FFEA67"/><stop offset="1" stop-color="#E09332" stop-opacity="0"/></linearGradient><clipPath id="a"><path fill="#fff" d="M0 0h32v32H0z"/></clipPath></defs></svg>
